public/images/logos/gstar.svg

<svg width="906" height="253" viewBox="0 0 906 253" fill="none" xmlns="http://www.w3.org/2000/svg">
<path fill-rule="evenodd" clip-rule="evenodd" d="M0 252.582V194.07H25.1606C32.3477 194.07 38.1167 196.244 41.7942 199.922C44.6359 202.764 46.3076 206.859 46.3076 211.457V211.623C46.3076 221.32 39.6206 227.004 30.4259 228.676L48.3973 252.582H40.2885L23.3209 229.846H6.60346V252.582H0ZM6.60346 223.912H24.5747C33.3515 223.912 39.6206 219.398 39.6206 211.875V211.707C39.6206 204.519 34.1034 200.172 24.6587 200.172H6.60346V223.912Z" fill="black"/>
<path d="M127.275 252.582V194.07H169.571V200.09H133.878V220.066H165.809V226.084H133.878V246.563H169.989V252.582H127.275ZM286.503 245.393L247.216 225.918V220.4L286.503 200.924V207.361L254.237 223.076L286.503 238.873V245.393ZM359.64 245.393L320.354 225.918V220.4L359.64 200.924V207.361L327.377 223.076L359.64 238.873V245.393ZM458.776 253L437.879 194.07H445.066L461.784 242.803L477.834 193.904H483.267L499.315 242.803L516.032 194.07H522.971L502.074 253H496.473L480.425 205.521L464.292 253H458.776ZM601.829 252.582V194.07H644.125V200.09H608.432V220.066H640.363V226.084H608.432V246.563H644.543V252.582H601.829Z" fill="black"/>
<path fill-rule="evenodd" clip-rule="evenodd" d="M719.682 252.582L746.347 193.652H752.532L779.196 252.582H772.093L765.238 237.117H733.391L726.453 252.582H719.682ZM735.982 231.1H762.646L749.356 201.342L735.982 231.1ZM857.603 252.582V194.07H882.761C889.95 194.07 895.717 196.244 899.395 199.922C902.238 202.764 903.91 206.859 903.91 211.457V211.623C903.91 221.32 897.223 227.004 888.029 228.676L906 252.582H897.891L880.923 229.846H864.206V252.582H857.603ZM864.206 223.912H882.177C890.954 223.912 897.223 219.398 897.223 211.875V211.707C897.223 204.519 891.706 200.172 882.26 200.172H864.206V223.912ZM814.818 40.1253C814.834 45.8582 813.274 51.4929 810.295 56.4526C807.317 61.4129 803.031 65.5205 797.87 68.3569L815.002 105.531H787.119L771.92 72.6435H723.086V105.531H697.544V0.00529494H781.078C785.504 0.00401731 789.882 0.84415 793.968 2.47769C798.056 4.11123 801.769 6.50643 804.897 9.5262C808.025 12.5461 810.505 16.1315 812.199 20.0774C813.893 24.0233 814.765 28.2526 814.765 32.5235L814.818 40.1253ZM781.131 47.9858C782.199 47.987 783.257 47.7843 784.25 47.3888C785.231 46.9961 786.128 46.4175 786.891 45.685C787.642 44.9604 788.241 44.0932 788.654 43.1341C789.063 42.1837 789.274 41.1599 789.274 40.1253V32.5763C789.274 31.544 789.064 30.5215 788.654 29.5675C788.242 28.6084 787.642 27.7412 786.891 27.0168C786.133 26.2867 785.235 25.7077 784.25 25.3131C783.258 24.9173 782.199 24.7146 781.131 24.7159H723.139V48.0332H781.131V47.9858ZM551.676 32.5816C551.676 28.3066 552.546 24.0735 554.244 20.1245C555.937 16.1755 558.423 12.5879 561.56 9.56726C564.692 6.54658 568.41 4.15193 572.502 2.52022C576.597 0.888502 580.979 0.0518372 585.409 0.0580428H644.074C648.496 0.0567652 652.878 0.897081 656.964 2.53117C661.052 4.16508 664.764 6.56063 667.893 9.58095C671.024 12.6013 673.501 16.1874 675.195 20.1338C676.888 24.0804 677.761 28.3101 677.755 32.5816V105.531H652.213V72.7015H577.311V105.584H551.727V32.5816H551.676ZM652.186 32.5816C652.186 31.5493 651.976 30.5268 651.567 29.5728C651.155 28.6136 650.555 27.7464 649.802 27.0221C649.041 26.2889 648.145 25.7103 647.163 25.3183C646.171 24.9234 645.112 24.7208 644.044 24.7212H585.409C584.341 24.7208 583.282 24.9234 582.29 25.3183C581.308 25.7103 580.412 26.2889 579.651 27.0221C578.898 27.7464 578.298 28.6136 577.886 29.5728C577.477 30.5234 577.266 31.547 577.265 32.5816V47.9911H652.17L652.186 32.5816Z" fill="black"/>
<path d="M543.699 0.00547746V24.6685H501.392V105.531H475.368V24.6685H433.067V0.00529494L543.699 0.00547746ZM329.93 32.5816C329.93 33.6163 330.14 34.6398 330.549 35.5906C330.962 36.5498 331.562 37.4169 332.314 38.1413C333.069 38.8714 333.967 39.4503 334.956 39.8451C335.947 40.2407 337.005 40.4433 338.072 40.4419H391.137C395.598 40.3872 400.024 41.1879 404.159 42.7975C408.295 44.4073 412.06 46.7939 415.234 49.8194C418.406 52.8444 420.926 56.4483 422.645 60.421C424.367 64.394 425.252 68.6569 425.252 72.9629C425.252 77.2685 424.367 81.532 422.645 85.5045C420.926 89.4776 418.406 93.081 415.234 96.1064C412.06 99.1319 408.295 101.518 404.159 103.128C400.024 104.738 395.598 105.539 391.137 105.484H308.405V80.8205H391.137C393.26 80.7674 395.277 79.9161 396.757 78.4485C398.239 76.9805 399.067 75.0122 399.067 72.9629C399.067 70.9132 398.239 68.9451 396.757 67.4775C395.277 66.0093 393.26 65.158 391.137 65.1053H338.072C329.213 64.9961 320.756 61.5221 314.532 55.4347C308.307 49.3477 304.817 41.1382 304.817 32.5843C304.817 24.0302 308.307 15.8207 314.532 9.73372C320.756 3.64672 329.213 0.172482 338.072 0.0635184H417.451V24.7267H338.072C335.918 24.7419 333.858 25.5741 332.334 27.0438C330.812 28.5134 329.948 30.5025 329.93 32.5816ZM240.557 40.4366H281.201V65.1H240.557V40.4366ZM124.573 105.531C120.145 105.531 115.761 104.688 111.671 103.051C107.581 101.413 103.865 99.0134 100.737 95.9885C97.6083 92.9631 95.1284 89.3724 93.4383 85.4209C91.7483 81.4694 90.882 77.2351 90.8884 72.9602V32.5235C90.8869 28.2521 91.7571 24.0222 93.4495 20.0756C95.1419 16.129 97.6229 12.543 100.751 9.52291C103.879 6.50241 107.593 4.10667 111.68 2.47295C115.768 0.838857 120.149 -0.00145825 124.573 1.89962e-06H215.495V24.6632H124.573C123.505 24.662 122.448 24.8646 121.456 25.26C120.474 25.6513 119.576 26.23 118.815 26.9638C118.062 27.6882 117.463 28.5554 117.05 29.5147C116.642 30.4653 116.432 31.489 116.432 32.5235V72.9602C116.432 73.9947 116.642 75.0184 117.05 75.969C117.463 76.9282 118.063 77.7953 118.815 78.5197C119.576 79.2537 120.474 79.8324 121.456 80.2235C122.448 80.6187 123.505 80.8214 124.573 80.8205H184.226C185.293 80.821 186.35 80.6179 187.341 80.2222C188.323 79.8299 189.22 79.2511 189.982 78.5179C190.733 77.7931 191.332 76.9261 191.745 75.9675C192.152 75.0172 192.362 73.994 192.362 72.9602V65.1H153.703V40.4419H217.906V72.9602C217.9 81.5886 214.351 89.8628 208.036 95.9683C201.721 102.074 193.158 105.513 184.22 105.531H124.573Z" fill="black"/>
</svg>

<svg xmlns="http://www.w3.org/2000/svg" width="906" height="253" fill="none"><path fill="#000" fill-rule="evenodd" d="M0 252.582V194.07h25.16c7.188 0 12.957 2.174 16.634 5.852 2.842 2.842 4.514 6.937 4.514 11.535v.166c0 9.697-6.687 15.381-15.882 17.053l17.971 23.906H40.29L23.32 229.846H6.603v22.736H0Zm6.603-28.67h17.972c8.777 0 15.046-4.514 15.046-12.037v-.168c0-7.188-5.518-11.535-14.962-11.535H6.603v23.74Z" clip-rule="evenodd"/><path fill="#000" d="M127.275 252.582V194.07h42.296v6.02h-35.693v19.976h31.931v6.018h-31.931v20.479h36.111v6.019h-42.714Zm159.228-7.189-39.287-19.475V220.4l39.287-19.476v6.437l-32.266 15.715 32.266 15.797v6.52Zm73.137 0-39.286-19.475V220.4l39.286-19.476v6.437l-32.263 15.715 32.263 15.797v6.52ZM458.776 253l-20.897-58.93h7.187l16.718 48.733 16.05-48.899h5.433l16.048 48.899 16.717-48.733h6.939L502.074 253h-5.601l-16.048-47.479L464.292 253h-5.516Zm143.053-.418V194.07h42.296v6.02h-35.693v19.976h31.931v6.018h-31.931v20.479h36.111v6.019h-42.714Z"/><path fill="#000" fill-rule="evenodd" d="m719.682 252.582 26.665-58.93h6.185l26.664 58.93h-7.103l-6.855-15.465h-31.847l-6.938 15.465h-6.771Zm16.3-21.482h26.664l-13.29-29.758-13.374 29.758Zm121.621 21.482V194.07h25.158c7.189 0 12.956 2.174 16.634 5.852 2.843 2.842 4.515 6.937 4.515 11.535v.166c0 9.697-6.687 15.381-15.881 17.053L906 252.582h-8.109l-16.968-22.736h-16.717v22.736h-6.603Zm6.603-28.67h17.971c8.777 0 15.046-4.514 15.046-12.037v-.168c0-7.188-5.517-11.535-14.963-11.535h-18.054v23.74ZM814.818 40.125a31.517 31.517 0 0 1-4.523 16.328c-2.978 4.96-7.264 9.067-12.425 11.904l17.132 37.174h-27.883L771.92 72.643h-48.834v32.888h-25.542V.005h83.534a34.705 34.705 0 0 1 12.89 2.473 33.767 33.767 0 0 1 10.929 7.048 32.487 32.487 0 0 1 7.302 10.551 31.534 31.534 0 0 1 2.566 12.446l.053 7.602Zm-33.687 7.86a8.402 8.402 0 0 0 3.119-.596 8.231 8.231 0 0 0 2.641-1.704 7.868 7.868 0 0 0 1.763-2.55c.409-.951.62-1.975.62-3.01v-7.549c0-1.032-.21-2.055-.62-3.009a7.85 7.85 0 0 0-1.763-2.55 8.206 8.206 0 0 0-2.641-1.704 8.39 8.39 0 0 0-3.119-.597h-57.992v23.317h57.992v-.047ZM551.676 32.583c0-4.275.87-8.509 2.568-12.457a32.375 32.375 0 0 1 7.316-10.558 33.775 33.775 0 0 1 10.942-7.047A34.74 34.74 0 0 1 585.409.058h58.665a34.71 34.71 0 0 1 12.89 2.473 33.778 33.778 0 0 1 10.929 7.05 32.448 32.448 0 0 1 7.302 10.553 31.449 31.449 0 0 1 2.56 12.448v72.949h-25.542v-32.83h-74.902v32.883h-25.584V32.582h-.051Zm100.51 0c0-1.033-.21-2.055-.619-3.01a7.823 7.823 0 0 0-1.765-2.55 8.167 8.167 0 0 0-2.639-1.704 8.426 8.426 0 0 0-3.119-.597h-58.635a8.426 8.426 0 0 0-3.119.597 8.167 8.167 0 0 0-2.639 1.704 7.823 7.823 0 0 0-1.765 2.55 7.63 7.63 0 0 0-.621 3.01v15.41h74.905l.016-15.41Z" clip-rule="evenodd"/><path fill="#000" d="M543.699.005v24.663h-42.307v80.863h-26.024V24.668h-42.301V.005h110.632ZM329.93 32.582c0 1.034.21 2.058.619 3.009a7.854 7.854 0 0 0 1.765 2.55 8.139 8.139 0 0 0 2.642 1.704 8.376 8.376 0 0 0 3.116.597h53.065a34.741 34.741 0 0 1 13.022 2.355 33.827 33.827 0 0 1 11.075 7.022 32.491 32.491 0 0 1 7.411 10.602 31.519 31.519 0 0 1 2.607 12.542c0 4.306-.885 8.569-2.607 12.541a32.493 32.493 0 0 1-7.411 10.602 33.83 33.83 0 0 1-11.075 7.022 34.728 34.728 0 0 1-13.022 2.356h-82.732V80.821h82.732a8.277 8.277 0 0 0 5.62-2.373 7.719 7.719 0 0 0 2.31-5.485c0-2.05-.828-4.018-2.31-5.485a8.272 8.272 0 0 0-5.62-2.373h-53.065c-8.859-.109-17.316-3.583-23.54-9.67-6.225-6.087-9.715-14.297-9.715-22.85 0-8.555 3.49-16.764 9.715-22.851 6.224-6.087 14.681-9.562 23.54-9.67h79.379v24.663h-79.379a8.352 8.352 0 0 0-5.738 2.317 7.793 7.793 0 0 0-2.404 5.538Zm-89.373 7.855h40.644V65.1h-40.644V40.437ZM124.573 105.53c-4.428 0-8.812-.843-12.902-2.48a33.795 33.795 0 0 1-10.934-7.063 32.473 32.473 0 0 1-7.299-10.567 31.551 31.551 0 0 1-2.55-12.46V32.522a31.54 31.54 0 0 1 2.561-12.447 32.46 32.46 0 0 1 7.302-10.553 33.773 33.773 0 0 1 10.929-7.05A34.722 34.722 0 0 1 124.573 0h90.922v24.663h-90.922a8.39 8.39 0 0 0-3.117.597c-.982.391-1.88.97-2.641 1.704a7.839 7.839 0 0 0-1.765 2.55 7.628 7.628 0 0 0-.618 3.01V72.96c0 1.035.21 2.058.618 3.009a7.854 7.854 0 0 0 1.765 2.55 8.148 8.148 0 0 0 2.641 1.704 8.4 8.4 0 0 0 3.117.597h59.653a8.389 8.389 0 0 0 3.115-.598 8.193 8.193 0 0 0 2.641-1.704 7.874 7.874 0 0 0 1.763-2.55 7.64 7.64 0 0 0 .617-3.008V65.1h-38.659V40.442h64.203V72.96c-.006 8.629-3.555 16.903-9.87 23.008-6.315 6.106-14.878 9.545-23.816 9.563h-59.647Z"/></svg>
